!!!!SEGMENT: pl-kk--kk-i-389--003-004_anonim--missa-no-3-graduale-alleluia-ave-maria.krn
!!!cenid: 17xx:2471
!!!COM: Anonim
!!!COM-rismID: pe30004985
!!!CDT:
!!!CNT:
!!!OPR: [Missa] No. 3.
!!!OTL: Graduale/Alleluia. Ave Maria
!!!OMV: 004
!!!PDT:
!!!AGN: Sacred; Mass
!!!YEC: Copyright 2022 Narodowy Instytut Fryderyka Chopina (https://polishscores.org)
!!!YEM: License CC-BY-4.0 (https://creativecommons.org/licenses/by/4.0)
!!!SMS-siglum: PL-Kk
!!!SMS-shelfmark: Kk.I.389
!!!SMS-variant:
!!!SMS-altvar:
!!!SMS-shelfwork: 003-004 M
!!!NIFC-rismSourceID: 1001146182
!!!NIFC-rismChildID: 1001146400
!!!NIFC-islandoraID: pl-kk:6976
!!!URL-pdf-islandora: https://repozytorium.nifc.pl/islandora/object/pl-kk%3A6976/datastream/PDF/view
!!!URL-scan: https://polish.musicsources.pl/pl/lokalizacje/galeria/rekopisy/5999/1 @EN{Scan on Polish Music Sources Website} @PL{Skany w portalu Dziedzictwo Muzyki Polskiej w otwartym dostępie}
!!!IIIF:
!!!ONB-nifc: UWAGA: S – skan 6-7, A – 25-26 , T – 44-45 , B – 63-64 . Części Mszy: Rorate, Kyrie, Gloria, Graduale, Sanctus, Benedictus, Agnus, Dona
!!!AIN: 1 alto 1 bass 1 soprn 1 tenor
!!!key: B-
**kern	**text	**kern	**text	**kern	**text	**kern	**text
*part4	*part4	*part3	*part3	*part2	*part2	*part1	*part1
*staff4	*staff4	*staff3	*staff3	*staff2	*staff2	*staff1	*staff1
*I"Basso.	*	*I"Tenore.	*	*I"Alto.	*	*I"Soprano.	*
*I'[B]	*	*I'[T]	*	*I'[A]	*	*I'[S]	*
*ICvox	*	*ICvox	*	*ICvox	*	*ICvox	*
*Ibass	*	*Itenor	*	*Ialto	*	*Isoprn	*
*clefF4	*	*clefC4	*	*clefC3	*	*clefC1	*
*k[b-e-a-]	*	*k[b-e-]	*	*k[b-e-]	*	*k[b-e-]	*
*B-:	*	*B-:	*	*B-:	*	*B-:	*
*M3/2	*	*M3/2	*	*M3/2	*	*M3/2	*
=1	=1	=1	=1	=1	=1	=1	=1
!LO:TX:t=P:problem:all\right	!	!	!	!	!	!	!
!LO:TX:t=P:problem: w basso dodatkowy znak przykluczowy	!	!	!	!	!	!	!
1E-	Al-	1G	Al-	1e-	Al-	1b-	Al-
*2\right	*	*	*	*2\right	*	*2\right	*
2E-\	-le-	2G/	-le-	2e-\	-le-	2b-\	-le-
=2	=2	=2	=2	=2	=2	=2	=2
1BB-	-lu-	1F	-lu-	1d	-lu-	2b-\	-lu-
.	.	.	.	.	.	1b-	-ia
2E-\	-ia	2G/	-ia	2e-\	-ia	.	.
=3	=3	=3	=3	=3	=3	=3	=3
1C	al-	1G	al-	1e-	al-	1cc	al-
2F\	-le-	[2F/	.	2e-\	-le-	2cc\	-le-
=4	=4	=4	=4	=4	=4	=4	=4
*	*	*	*	*2\right	*	*	*
2BB-/	-lu-	2F/]	.	2d\	-lu-	1b-	-lu-
*	*	*2\right	*	*	*	*	*
2B-\	.	2d\	.	1f	.	.	.
2An\	.	2c\	-le-	.	.	2cc\	.
=5	=5	=5	=5	=5	=5	=5	=5
1G	.	1d	-lu-	1f	.	1.b-	.
2c\	.	2c\	.	2en\	.	.	.
=6	=6	=6	=6	=6	=6	=6	=6
2F\	-ia,	2c\	-ia,	2f\	-ia,	2an\	-ia,
2BB-/	al-	2f\	al-	2d\	al-	2b-\	al-
2BB-/	-le-	2f\	-le-	2d\	-le-	2b-\	-le-
=7	=7	=7	=7	=7	=7	=7	=7
1E-	-lu-	1e-X	-lu-	1B-	-lu-	1g	-lu-
2E-\	-ia	2e-\	-ia	2B-/	-ia	2g\	-ia
!LO:LB:g=original	!	!LO:LB:g=original	!	!	!	!LO:LB:g=original	!
=8	=8	=8	=8	=8	=8	=8	=8
1C	al-	1G	al-	1e-	al-	1cc	al-
2C/	-le-	2G/	-le-	2e-\	-le-	2cc\	-le-
!	!	!	!	!LO:LB:g=original	!	!	!
=9	=9	=9	=9	=9	=9	=9	=9
1F	-lu-	1F	-lu-	1c	-lu-	1an	-lu-
2F\	-ia	2F/	-ia	2c\	-ia,	2a\	-ia
=10	=10	=10	=10	=10	=10	=10	=10
1D	al-	1An	al-	1.f	al-	1.dd	al-
2D\	-le-	2A\	-le-	.	.	.	.
=11	=11	=11	=11	=11	=11	=11	=11
2G\	-lu-	1B-	-lu-	1d	.	1dd	.
2F\	.	.	.	.	.	.	.
2E-X\	-ia	2c\	-ia	2a\	.	2ee-X\	.
=12	=12	=12	=12	=12	=12	=12	=12
4D\	al-	4d\	al-	4f\	-le-	1b-	-le-
4E-\	.	4c\	-le-	4g\	.	.	.
2F\	-le-	1c	-lu-	1f	-lu-	.	.
2FF/	-lu-	.	.	.	.	2a\	-lu-
=13	=13	=13	=13	=13	=13	=13	=13
1.BB-	-ia.	1.d	-ia.	1.f	-ia.	1.b-	-ia.
=14||	=14||	=14||	=14||	=14||	=14||	=14||	=14||
!LO:TX:a:t=9.	!	!	!	!	!	!	!
00.r	.	2An\	A-	2c\	A-	2f/	A-
.	.	2A\	-ve	2c\	-ve	2f/	-ve
.	.	2A\	ma-	2c\	ma-	2f/	ma-
=15	=15	=15	=15	=15	=15	=15	=15
.	.	2c\	-ri-	1f	-ri-	2an\	-ri-
.	.	4d\	.	.	.	2b-\	.
.	.	4c\	.	.	.	.	.
.	.	4B-\	.	2f\	-a	2f/	-a
.	.	4A\	-a	.	.	.	.
=16	=16	=16	=16	=16	=16	=16	=16
.	.	2.G/	gra-	2.en\	gra-	2.cc\	gra-
.	.	4G/	-ti-	4e\	-ti-	4cc\	-ti-
.	.	2A\	-a	2e\	-a	2cc\	-a
!	!	!LO:LB:g=original	!	!	!	!LO:LB:g=original	!
=17	=17	=17	=17	=17	=17	=17	=17
!	!	!	!	!LO:TX:a:t=1.	!	!	!
.	.	2r	.	1.r	.	2r	.
.	.	2en\	ple-	.	.	2cc\	ple-
.	.	2e\	-na	.	.	2cc\	-na
=18	=18	=18	=18	=18	=18	=18	=18
00.r	.	1c	ple-	2r	.	1a	ple-
.	.	.	.	4f\	gra-	.	.
.	.	.	.	4f\	-ti-	.	.
.	.	2c\	-na,	2f\	-a	2a\	-na
!	!	!	!	!LO:LB:g=original	!	!	!
=19	=19	=19	=19	=19	=19	=19	=19
.	.	2r	.	1d	ple-	2r	.
.	.	2f\	ple-	.	.	2dd\	ple-
.	.	2f\	-na	2d\	-na	2dd\	-na
=20	=20	=20	=20	=20	=20	=20	=20
.	.	1d	ple-	2r	.	1b-	ple-
.	.	.	.	4g\	gra-	.	.
.	.	.	.	4g\	-ti-	.	.
.	.	2d\	-na,	2g\	-a	2b-\	-na,
=21	=21	=21	=21	=21	=21	=21	=21
.	.	2G/	Do-	2.en\	gra-	2cc\	Do-
.	.	2F/	-mi-	.	.	2a\	-mi-
.	.	.	.	4c\	-ti-	.	.
.	.	2A\	-nus,	2f\	-a	2dd\	-nus
=22	=22	=22	=22	=22	=22	=22	=22
1.r	.	4B-\	te-	1f	ple-	2b-\	te-
.	.	4A\	.	.	.	.	.
.	.	1G	.	.	.	1cc	.
.	.	.	.	2en\	.	.	.
=23	=23	=23	=23	=23	=23	=23	=23
2r	.	2A\	-cum,	2f\	-na,	2f/	-cum,
2F\	Do-	2F/	be-	4c\	Do-	2a\	be-
.	.	.	.	4c\	-mi-	.	.
4F\	-mi-	2F/	-ne-	2c\	-nus	2a\	-ne-
4F\	-mus	.	.	.	.	.	.
=24	=24	=24	=24	=24	=24	=24	=24
1F	te-	1G	-dic-	1d	te-	1b-	-dic-
2E-X\	-cum	2G/	-ta,	2e-X\	-cum,	2cc\	-ta
!LO:LB:g=original	!	!	!	!	!	!	!
=25	=25	=25	=25	=25	=25	=25	=25
2D\	be-	4B-\	tu	2f\	be-	4dd\	tu
.	.	4d\	in	.	.	4ff\	in
!	!	!LO:LB:g=original	!	!	!	!	!
2E-X\	-ne-	2c\	mu-	2g\	-ne-	2ee-\	mu-
2E-\	-dic-	2B-\	-li-	2g\	-dic-	2dd\	-li-
!	!	!	!	!	!	!LO:LB:g=original	!
=26	=26	=26	=26	=26	=26	=26	=26
1F	-ta,	2.A\	-e-	1f	-ta,	2.cc\	-e-
.	.	4A\	-ri-	.	.	4cc\	-ri-
2BB-/	tu	2B-\	-bus	2f\	tu	2dd\	-bus,
!	!	!	!	!LO:LB:g=original	!	!	!
=27	=27	=27	=27	=27	=27	=27	=27
2D\	in	2B-\	et	2f\	in	2dd\	et
2D\	mu-	2B-\	be-	2f\	mu-	2dd\	be-
2D\	-li-	2B-\	-ne-	2f\	-li-	2dd\	-ne-
=28	=28	=28	=28	=28	=28	=28	=28
2.E-X\	-e-	1G	-dic-	2.e-X\	-e-	1b-	-dic-
4E-\	-ri-	.	.	4e-\	-ri-	.	.
2E-\	-bus	2G/	-tus	2e-\	-bus,	2b-\	-tus
=29	=29	=29	=29	=29	=29	=29	=29
2r	.	1c	fruc-	2r	.	2r	.
2C/	et	.	.	2g\	et	2ee-\	fruc-
4C/	be-	2c\	-tus	4g\	be-	2ee-\	-tus
4C/	-ne-	.	.	4g\	-ne-	.	.
=30	=30	=30	=30	=30	=30	=30	=30
1F	-dic-	1A	Ven-	1f	-dic-	1cc	Ven-
2F\	-tus	2A\	-tris,	2f\	-tus	2cc\	-tris,
=31	=31	=31	=31	=31	=31	=31	=31
2r	.	1d	fruc-	2r	.	2r	.
2D\	fruc-	.	.	2f\	fru-	2ff\	fru-
2D\	-tus	2d\	-tus	2f\	-ctus	2ff\	-ctuſ
!LO:LB:g=original	!	!	!	!	!	!	!
=32	=32	=32	=32	=32	=32	=32	=32
1G	Ven-	1B-	Ven-	1g	Ven-	1dd	Ven-
2G\	-tris	2B-\	-tris	2g\	-tris	2dd\	-tris,
=33	=33	=33	=33	=33	=33	=33	=33
2.E-\	tu-	1B-	tu-	2.g\	fruc-	2.ee-X\	tu-
4D\	.	.	.	4f\	.	4ff\	.
2C\	-i	2A\	-i	2e-X\	-tus	2ee-\	-i
!	!	!	!	!	!	!LO:LB:g=original	!
=34	=34	=34	=34	=34	=34	=34	=34
2BB-/	al-	4B-\	Ven-	1f	Ven-	4dd\	Ven-
.	.	4B-\	-tris	.	.	4ee-X\	-tris
!	!	!LO:LB:g=original	!	!	!	!	!
2F\	-le-	2B-\	tu-	.	.	1cc	tu-
2FF/	-lu-	2An\	.	2f\	-tris	.	.
!	!	!	!	!LO:LB:g=original	!	!	!
=35	=35	=35	=35	=35	=35	=35	=35
2BB-/	-ia,	2B-\	-i,	2f\	tu-	2dd\	-i
2D\	al-	2B-\	al-	2f\	-i	2b-\	al-
2E-\	.	2e-X\	-le-	2f\	al-	2b-\	-le-
=36	=36	=36	=36	=36	=36	=36	=36
!LO:TX:t=P:problem:nadmiarowy takt w alto	!	!LO:TX:t=P:problem:nadmiarowy takt w alto	!	!	!	!LO:TX:t=P:problem:nadmiarowy takt w alto	!
1.ryy	.	1.ryy	.	1f	-le-	1.ryy	.
.	.	.	.	2g\	.	.	.
=37	=37	=37	=37	=37	=37	=37	=37
2C/	-le-	2e-\	-lu-	1e-	.	2an\	-lu-
2BB-/	.	2d\	.	.	.	2b-\	.
2F\	-lu-	2c\	-ia	2f\	-lu-	2a\	-ia
=38	=38	=38	=38	=38	=38	=38	=38
2BB-/	-ia	4d\	al-	2f\	-ia	4b-\	al-
.	.	4c\	.	.	.	4a\	.
2r	.	4d\	.	2r	.	4b-\	.
.	.	4e-\	.	.	.	4cc\	.
2F\	al-	4c\	-le-	2f\	al-	4a\	.
.	.	4d\	.	.	.	4cc\	-le-
=39	=39	=39	=39	=39	=39	=39	=39
2B-\	-le-	4B-\	-lu-	1f	-le-	4dd\	-lu-
.	.	4A\	.	.	.	4cc\	.
2r	.	4B-\	.	.	.	4dd\	.
.	.	4c\	.	.	.	4ee-\	.
2F\	-lu-	4A\	.	2f\	-lu-	4cc\	.
.	.	4c\	.	.	.	4ee-\	.
=40	=40	=40	=40	=40	=40	=40	=40
2BB-/	-ia.	2B-\	-ia.	2f\	-ia.	2dd\	-ia.
2r	.	2r	.	2r	.	2r	.
2ryy	.	2r	.	2r	.	2r	.
==	==	==	==	==	==	==	==
*-	*-	*-	*-	*-	*-	*-	*-
!!!system-decoration: [(s1,s2,s3,s4)]
!!!ENC: Filip Voros
!!!END: 2023-11-06
!!!EED: Jan Barakat
!!!EEV: 2023-11-28
